X:1
T:[ID 2-14]
T:[ID 2-14]
T:Bezeichnung standardisiert: Anglaise [mit Trio]; Angeloise [mit Trio]
T:Urheber unbekannt Datum in der hier transkribierten schriftlichen Quelle: 1792
C:Urheber unbekannt
C:Datum in der hier transkribierten schriftlichen Quelle: 1792
L:1/8
M:2/4
K:Bb
V:1 treble 
V:1
 cc/B/!p! cA | GFEc | DFEG | GF E2 |!f! cc/B/ cA | GFEc | B/c/d/e/f/d/c/B/ | c2 c2 :: G,2 BB | %9
 G,2!f! cc | Bdfe | dB G2 |!p! cc/B/ cA | GFEc | B/c/d/e/f/d/c/B/ | c2 c2 :| %16
[K:F][M:3/4]"^Trio" Ac!p! Tc2 | Ac Tc2 | f/e/d/c/B/A/G/F/ | EG C2 | fcdB | cABG | AFGE | F2 F2 :: %24
"^pezc" Accc | cBBB | AFEF | EG C2 |!f! a2 g2 | f2 d2 | cBAG | F2 F2 :| %32

